X:1
T: Miss Preston Fernton
C:
R:Reel
Q: 232
K:D
M:4/4
L:1/8
|:B|AB AG FD dF|E1/2E1/2E FA BE Ed|AB AG FD dg|fd ef d1/2d1/2d dB|
AB AG FD dF|E1/2E1/2E FA BE Ed|AB AG FD dg|fd ef d1/2d1/2d df|
ad fd f1/2g1/2a fd|Be ed cA Af|ad fd f1/2g1/2a fd|Gg fe d1/2d1/2d df|
ad fd f1/2g1/2a fd|Be ed cA Af|fd af bg af|ed ef d1/2d1/2d d:|
